brandFactory_export/3.Masa/Multicontenido_3Masa.svg

<?xml version="1.0" encoding="UTF-8"?>
<svg width="24px" height="24px" viewBox="0 0 24 24" version="1.1" xmlns="http://www.w3.org/2000/svg" xmlns:xlink="http://www.w3.org/1999/xlink">
    <title>3.Masa/Multicontenido_3Masa</title>
    <g id="Symbols" stroke="none" stroke-width="1" fill="none" fill-rule="evenodd">
        <g id="3.Masa/Multicontenido_3Masa" fill="#5CB615" fill-rule="nonzero">
            <path d="M12.789916,18.7546218 C13.1596639,18.7546218 13.4621849,19.0571429 13.4621849,19.4268908 C13.4621849,19.7966387 13.1596639,20.0991597 12.789916,20.0991597 L12.789916,20.0991597 L6.8907563,20.0991597 C6.5210084,20.0991597 6.2184874,19.7966387 6.2184874,19.4268908 C6.2184874,19.0571429 6.5210084,18.7546218 6.8907563,18.7546218 L6.8907563,18.7546218 Z M16.0605042,3.00672269 C17.3815126,3.00672269 18.389916,3.39663866 19.0655462,4.1697479 C19.6907563,4.88907563 20.010084,5.93109244 20.010084,7.26890756 L20.010084,7.26890756 L20.010084,7.27563025 L21.1092437,7.27563025 C22.7529412,7.27563025 23.6235294,8.14621849 23.6235294,9.78991597 L23.6235294,9.78991597 L23.6235294,17.5747899 C23.6235294,19.2184874 22.7529412,20.0890756 21.1092437,20.0890756 L21.1092437,20.0890756 L17.5831933,20.0890756 C15.9394958,20.0890756 15.0689076,19.2184874 15.0689076,17.5747899 L15.0689076,17.5747899 L15.0689076,17.4537815 L3.94957983,17.4537815 C2.62857143,17.4537815 1.62016807,17.0638655 0.944537815,16.2907563 C0.315966387,15.5714286 2.62978972e-10,14.5294118 2.62978972e-10,13.1915966 L2.62978972e-10,13.1915966 L2.62978972e-10,7.26554622 C2.62978972e-10,5.92773109 0.315966387,4.88571429 0.944537815,4.1697479 C1.62016807,3.4 2.63193277,3.00672269 3.94957983,3.00672269 L3.94957983,3.00672269 Z M21.1092437,8.62016807 L17.5798319,8.62016807 C16.7058824,8.62016807 16.410084,8.91596639 16.410084,9.78991597 L16.410084,9.78991597 L16.410084,17.5781513 C16.410084,18.0319328 16.4941176,18.3445378 16.6588235,18.5058824 C16.8235294,18.6705882 17.1327731,18.7512605 17.5831933,18.7512605 L17.5831933,18.7512605 L21.1058824,18.7512605 C21.5563025,18.7512605 21.8655462,18.6672269 22.0302521,18.5058824 C22.194958,18.3411765 22.2789916,18.0285714 22.2789916,17.5781513 L22.2789916,17.5781513 L22.2789916,9.78991597 C22.2789916,8.89243697 22.0067227,8.62016807 21.1092437,8.62016807 L21.1092437,8.62016807 Z M19.3445378,16.1327731 C19.8890756,16.1327731 20.2420168,16.4857143 20.2420168,17.0336134 C20.2420168,17.3697479 20.1109244,17.5714286 20.0033613,17.6823529 C19.892437,17.7966387 19.687395,17.9310924 19.3445378,17.9310924 C19.0016807,17.9310924 18.7966387,17.7966387 18.6857143,17.6823529 C18.5747899,17.5714286 18.4470588,17.3697479 18.4470588,17.0336134 C18.4470588,16.4857143 18.8,16.1327731 19.3445378,16.1327731 Z" id="Multicontenido_3Masa"></path>
        </g>
    </g>
</svg>

<svg width="24" height="24" viewBox="0 0 24 24" xmlns="http://www.w3.org/2000/svg"><path d="M12.79 18.755c.37 0 .672.302.672.672 0 .37-.302.672-.672.672h-5.9a.674.674 0 01-.672-.672c0-.37.303-.672.673-.672zm3.27-15.748c1.322 0 2.33.39 3.006 1.163.625.72.944 1.761.944 3.099v.007h1.1c1.643 0 2.514.87 2.514 2.514v7.785c0 1.643-.871 2.514-2.515 2.514h-3.526c-1.644 0-2.514-.87-2.514-2.514v-.121H3.949c-1.32 0-2.329-.39-3.004-1.163C.316 15.57 0 14.529 0 13.19V7.267c0-1.338.316-2.38.945-3.096.675-.77 1.687-1.163 3.005-1.163zm5.05 5.613h-3.53c-.874 0-1.17.296-1.17 1.17v7.788c0 .454.084.767.249.928.165.165.474.245.924.245h3.523c.45 0 .76-.084.924-.245.165-.165.249-.477.249-.928V9.79c0-.898-.272-1.17-1.17-1.17zm-1.765 7.513c.544 0 .897.353.897.9 0 .337-.131.538-.239.65-.11.114-.316.248-.658.248-.343 0-.548-.134-.66-.249-.11-.11-.238-.312-.238-.648 0-.548.353-.901.898-.901z" fill="#5CB615" fill-rule="nonzero"/></svg>
